public/img/StipendiumCircle.svg

<svg fill="none" height="46" viewBox="0 0 228 46" width="228" xmlns="http://www.w3.org/2000/svg"><path d="m179.157 2.14768c-44.954-.10645-89.896-.91818-134.8475-1.08796-6.4198-.02425-12.7258-.421415-18.8994 1.20884-9.2319 2.4379-22.90028 7.28922-24.20091 16.44034-.910882 6.4088 1.10329 14.134 7.01975 18.6968 8.72086 6.7255 24.94516 6.06 35.88416 6.286 13.5512.2799 26.6516-.3203 40.0568-1.6118 6.2087-.5982 13.0568.6467 19.2431.9671 28.532 1.4774 57.072 1.8612 85.66 1.8938 5.817.0067 11.635 0 17.452 0 2.979 0 6.835.3483 9.695-.6447 7.887-2.7392 10.158-13.0401 10.701-19.1401.721-8.0965-3.503-15.0191-12.37-18.77736-4.112-1.74271-8.831-3.00886-13.451-3.42506-2.829-.25487-9.464 1.45844-11.339-.08059" stroke="#3dd7ac" stroke-linecap="round" stroke-linejoin="round" stroke-width="2"/></svg>

<svg width="228" height="46" viewBox="0 0 228 46" fill="none" xmlns="http://www.w3.org/2000/svg">
<path d="M179.157 2.14768C134.203 2.04123 89.261 1.2295 44.3095 1.05972C37.8897 1.03547 31.5837 0.638305 25.4101 2.26856C16.1782 4.70646 2.50982 9.55778 1.20919 18.7089C0.298308 25.1177 2.31248 32.8429 8.22894 37.4057C16.9498 44.1312 33.1741 43.4657 44.1131 43.6917C57.6643 43.9716 70.7647 43.3714 84.1699 42.0799C90.3786 41.4817 97.2267 42.7266 103.413 43.047C131.945 44.5244 160.485 44.9082 189.073 44.9408C194.89 44.9475 200.708 44.9408 206.525 44.9408C209.504 44.9408 213.36 45.2891 216.22 44.2961C224.107 41.5569 226.378 31.256 226.921 25.156C227.642 17.0595 223.418 10.1369 214.551 6.37864C210.439 4.63593 205.72 3.36978 201.1 2.95358C198.271 2.69871 191.636 4.41202 189.761 2.87299" stroke="#3DD7AC" stroke-width="2" stroke-linecap="round" stroke-linejoin="round"/>
</svg>
